packages/kaspersky-hexa-ui-icons/src/iconsSVGs/64x42/FlagMr.svg

<svg xmlns="http://www.w3.org/2000/svg" width="64" height="42" fill="none" viewBox="0 0 64 42"><g clip-path="url(#a)"><rect width="64" height="42" fill="#fff" rx="5"/><path fill="#108b4d" d="M0 0h64v42H0z"/><path fill="#ffc941" fill-rule="evenodd" d="M44.2089 16.2399c.102.6456.1549 1.3075.1549 1.9818 0 6.9588-5.6412 12.6-12.6 12.6s-12.6-5.6412-12.6-12.6c0-.6743.053-1.3362.155-1.9818.9506 6.0172 6.1605 10.6182 12.445 10.6182s11.4944-4.601 12.4451-10.6182M32 17.9845l-3.461 2.4673 1.277-4.0541-3.416-2.5291 4.2502-.0383L32 9.7999l1.3498 4.0304 4.2502.0383-3.416 2.5291 1.277 4.0541z" clip-rule="evenodd"/></g><defs><clipPath id="a"><rect width="64" height="42" fill="#fff" rx="5"/></clipPath></defs></svg>

<svg width="64" height="42" viewBox="0 0 64 42" fill="none" xmlns="http://www.w3.org/2000/svg">
<g clip-path="url(#clip0_37941_2311)">
<rect width="64" height="42" rx="5" fill="white"/>
<rect width="64" height="42" fill="#108B4D"/>
<path fill-rule="evenodd" clip-rule="evenodd" d="M44.2089 16.2399C44.3109 16.8855 44.3638 17.5474 44.3638 18.2217C44.3638 25.1805 38.7226 30.8217 31.7638 30.8217C24.805 30.8217 19.1638 25.1805 19.1638 18.2217C19.1638 17.5474 19.2168 16.8855 19.3188 16.2399C20.2694 22.2571 25.4793 26.8581 31.7638 26.8581C38.0483 26.8581 43.2582 22.2571 44.2089 16.2399ZM32 17.9845L28.539 20.4518L29.816 16.3977L26.4 13.8686L30.6502 13.8303L32 9.79993L33.3498 13.8303L37.6 13.8686L34.184 16.3977L35.461 20.4518L32 17.9845Z" fill="#FFC941"/>
</g>
<defs>
<clipPath id="clip0_37941_2311">
<rect width="64" height="42" rx="5" fill="white"/>
</clipPath>
</defs>
</svg>
